icons/outline/language.svg

<svg width="24" height="24" viewBox="0 0 24 24" fill="none" xmlns="http://www.w3.org/2000/svg">
<path d="M10.5 21L15.75 9.75L21 21M12 18H19.5M3 5.62136C4.96557 5.37626 6.96804 5.25 9 5.25M9 5.25C10.1208 5.25 11.2326 5.28841 12.3343 5.364M9 5.25V3M12.3343 5.364C11.1763 10.6578 7.68868 15.0801 3 17.5023M12.3343 5.364C13.2298 5.42545 14.1186 5.51146 15 5.62136M10.4113 14.1162C8.78554 12.4619 7.47704 10.4949 6.58432 8.31366" stroke="#0F172A" stroke-width="1.5" stroke-linecap="round" stroke-linejoin="round"/>
</svg>

<svg xmlns="http://www.w3.org/2000/svg" fill="none" viewBox="0 0 24 24" stroke-width="1.5" stroke="currentColor" aria-hidden="true" data-slot="icon">
  <path stroke-linecap="round" stroke-linejoin="round" d="m10.5 21 5.25-11.25L21 21m-9-3h7.5M3 5.621a48.474 48.474 0 0 1 6-.371m0 0c1.12 0 2.233.038 3.334.114M9 5.25V3m3.334 2.364C11.176 10.658 7.69 15.08 3 17.502m9.334-12.138c.896.061 1.785.147 2.666.257m-4.589 8.495a18.023 18.023 0 0 1-3.827-5.802"/>
</svg>
